;This Gcode has been generated specifically for the LulzBot Mini
;Basic settings: Layer height: 0.38 Walls: 1 Fill: 20
;Filament Diameter: 2.85
;Nozzle Size: 0.5
G21                          ; metric values
G90                          ; absolute positioning
M82                          ; set extruder to absolute mode
M107                         ; start with the fan off
G92 E0                       ; set extruder position to 0
M140 S60; get bed heating up
G28                          ; home all
M109 S140                    ; set to cleaning temp and wait
G1 Z150 E-30 F75             ; suck up XXmm of filament
M109 S140                    ; heat up rest of way
G1 X45 Y174 F11520           ; move behind scraper
G1 Z0  F1200                 ; CRITICAL: set Z to height of top of scraper
G1 X45 Y174 Z-.5 F4000       ; wiping ; plunge into wipe pad
G1 X55 Y172 Z-.5 F4000       ; wiping
G1 X45 Y174 Z0 F4000         ; wiping
G1 X55 Y172 F4000            ; wiping
G1 X45 Y174 F4000            ; wiping
G1 X55 Y172 F4000            ; wiping
G1 X45 Y174 F4000            ; wiping
G1 X55 Y172 F4000            ; wiping
G1 X60 Y174 F4000            ; wiping
G1 X80 Y172 F4000            ; wiping
G1 X60 Y174 F4000            ; wiping
G1 X80 Y172 F4000            ; wiping
G1 X60 Y174 F4000            ; wiping
G1 X90 Y172 F4000            ; wiping
G1 X80 Y174 F4000            ; wiping
G1 X100 Y172 F4000           ; wiping
G1 X80 Y174 F4000            ; wiping
G1 X100 Y172 F4000           ; wiping
G1 X80 Y174 F4000            ; wiping
G1 X100 Y172 F4000           ; wiping
G1 X110 Y174 F4000           ; wiping
G1 X100 Y172 F4000           ; wiping
G1 X110 Y174 F4000           ; wiping
G1 X100 Y172 F4000           ; wiping
G1 X110 Y174 F4000           ; wiping
G1 X115 Y172 Z-0.5 F1000     ; wipe slower and bury noz in cleanish area
G1 Z10                       ; raise z
G28 X0 Y0                    ; home x and y
M109 S140                    ; set to probing temp
M204 S300                    ; Set probing acceleration
G29                          ; Probe
M204 S2000                   ; Restore standard acceleration
G1 X5 Y15 Z10 F5000          ; get out the way
G4 S1                        ; pause
M400                         ; clear buffer
M109 S205    ; set extruder temp and wait
G4 S15                       ; wait for bed to temp up
G1 Z2 E0 F75                 ; extrude filament back into nozzle
M140 S60; get bed temping up during first layer

;Layer count: 2
;LAYER:0
M107
G0 F10500 X56.688 Y34.689 Z0.425
;TYPE:SKIRT
G1 F900 X103.312 Y34.689 E1.94133
G1 X103.312 Y121.311 E5.54809
G1 X56.688 Y121.312 E7.48942
G1 X56.688 Y34.689 E11.09622
G1 F600 E9.59622
G1 Z0.525
G0 F10500 X60.937 Y38.938
;TYPE:WALL-INNER
G1 Z0.425
G1 F600 E11.09622
G1 F900 X99.063 Y38.938 E12.68371
G1 X99.063 Y45.814 E12.97001
G1 X78.063 Y45.814 E13.84441
G1 X78.063 Y50.188 E14.02653
G1 X99.063 Y50.188 E14.90093
G1 X99.063 Y105.813 E17.21704
G1 X78.063 Y105.813 E18.09144
G1 X78.063 Y110.187 E18.27356
G1 X99.063 Y110.187 E19.14796
G1 X99.063 Y117.062 E19.43422
G1 X60.937 Y117.063 E21.02171
G1 X60.937 Y38.938 E24.27468
G0 F10500 X60.312 Y38.313
;TYPE:WALL-OUTER
G1 F900 X99.688 Y38.313 E25.91421
G1 X99.688 Y46.439 E26.25256
G1 X78.688 Y46.439 E27.12696
G1 X78.688 Y49.563 E27.25704
G1 X99.688 Y49.563 E28.13143
G1 X99.688 Y106.438 E30.49959
G1 X78.688 Y106.438 E31.37399
G1 X78.688 Y109.562 E31.50406
G1 X99.688 Y109.562 E32.37846
G1 X99.688 Y117.687 E32.71677
G1 X60.312 Y117.688 E34.35631
G1 X60.312 Y38.313 E37.66132
G0 F10500 X61.155 Y39.501
;TYPE:SKIN
G1 F900 X98.844 Y77.189 E39.88060
G0 F10500 X98.844 Y76.306
G1 F900 X61.695 Y39.157 E42.06812
G0 F10500 X62.579 Y39.157
G1 F900 X98.844 Y75.422 E44.20358
G0 F10500 X98.844 Y74.538
G1 F900 X63.463 Y39.157 E46.28699
G0 F10500 X64.347 Y39.157
G1 F900 X98.844 Y73.654 E48.31835
G0 F10500 X98.844 Y72.770
G1 F900 X65.231 Y39.157 E50.29765
G0 F10500 X66.115 Y39.157
G1 F900 X98.844 Y71.886 E52.22489
G0 F10500 X98.844 Y71.002
G1 F900 X78.249 Y50.407 E53.43763
G0 F10500 X77.843 Y50.001
G1 F900 X66.999 Y39.157 E54.07618
G0 F10500 X67.882 Y39.157
G1 F900 X77.843 Y49.117 E54.66270
G0 F10500 X77.843 Y48.233
G1 F900 X68.766 Y39.157 E55.19717
G0 F10500 X69.650 Y39.157
G1 F900 X77.843 Y47.349 E55.67958
G0 F10500 X77.843 Y46.466
G1 F900 X70.534 Y39.157 E56.10997
G0 F10500 X71.418 Y39.157
G1 F900 X77.855 Y45.594 E56.48902
G0 F10500 X78.739 Y45.594
G1 F900 X72.302 Y39.157 E56.86806
G0 F10500 X73.186 Y39.157
G1 F900 X79.623 Y45.594 E57.24710
G0 F10500 X78.234 Y45.985
G0 X78.234 Y50.017
G0 X79.133 Y50.407
G1 F900 X98.844 Y70.118 E58.40778
G0 F10500 X98.844 Y69.234
G1 F900 X80.016 Y50.407 E59.51644
G0 F10500 X80.900 Y50.407
G1 F900 X98.844 Y68.351 E60.57307
G0 F10500 X98.844 Y67.467
G1 F900 X81.784 Y50.407 E61.57765
G0 F10500 X82.668 Y50.407
G1 F900 X98.844 Y66.583 E62.53017
G0 F10500 X98.844 Y65.699
G1 F900 X83.552 Y50.407 E63.43064
G0 F10500 X84.436 Y50.407
G1 F900 X98.844 Y64.815 E64.27905
G0 F10500 X98.844 Y63.931
G1 F900 X85.320 Y50.407 E65.07541
G0 F10500 X86.204 Y50.407
G1 F900 X98.844 Y63.047 E65.81972
G0 F10500 X98.844 Y62.163
G1 F900 X87.087 Y50.407 E66.51200
G0 F10500 X87.971 Y50.407
G1 F900 X98.844 Y61.279 E67.15223
G0 F10500 X98.844 Y60.396
G1 F900 X88.855 Y50.407 E67.74043
G0 F10500 X89.739 Y50.407
G1 F900 X98.844 Y59.512 E68.27658
G0 F10500 X98.844 Y58.628
G1 F900 X90.623 Y50.407 E68.76067
G0 F10500 X91.507 Y50.407
G1 F900 X98.844 Y57.744 E69.19271
G0 F10500 X98.844 Y56.860
G1 F900 X92.391 Y50.407 E69.57269
G0 F10500 X93.275 Y50.407
G1 F900 X98.844 Y55.976 E69.90062
G0 F10500 X98.844 Y55.092
G1 F900 X94.159 Y50.407 E70.17650
G0 F10500 X95.042 Y50.407
G1 F900 X98.844 Y54.208 E70.40035
G0 F10500 X98.844 Y53.325
G1 F900 X95.926 Y50.407 E70.57218
G0 F10500 X96.810 Y50.407
G1 F900 X98.844 Y52.441 E70.69195
G0 F10500 X98.844 Y51.557
G1 F900 X97.694 Y50.407 E70.75967
G0 F10500 X98.578 Y50.407
G1 F900 X98.844 Y50.673 E70.77533
G0 F10500 X78.234 Y50.017
G0 X78.234 Y45.985
G0 X98.185 Y45.594
G1 F900 X91.747 Y39.157 E71.15440
G0 F10500 X90.863 Y39.157
G1 F900 X97.301 Y45.594 E71.53348
G0 F10500 X96.417 Y45.594
G1 F900 X89.980 Y39.157 E71.91252
G0 F10500 X89.096 Y39.157
G1 F900 X95.533 Y45.594 E72.29156
G0 F10500 X94.649 Y45.594
G1 F900 X88.212 Y39.157 E72.67060
G0 F10500 X87.328 Y39.157
G1 F900 X93.765 Y45.594 E73.04964
G0 F10500 X92.882 Y45.594
G1 F900 X86.444 Y39.157 E73.42872
G0 F10500 X85.560 Y39.157
G1 F900 X91.998 Y45.594 E73.80779
G0 F10500 X91.114 Y45.594
G1 F900 X84.676 Y39.157 E74.18686
G0 F10500 X83.792 Y39.157
G1 F900 X90.230 Y45.594 E74.56593
G0 F10500 X89.346 Y45.594
G1 F900 X82.908 Y39.157 E74.94500
G0 F10500 X82.025 Y39.157
G1 F900 X88.462 Y45.594 E75.32405
G0 F10500 X87.578 Y45.594
G1 F900 X81.141 Y39.157 E75.70309
G0 F10500 X80.257 Y39.157
G1 F900 X86.694 Y45.594 E76.08213
G0 F10500 X85.810 Y45.594
G1 F900 X79.373 Y39.157 E76.46117
G0 F10500 X78.489 Y39.157
G1 F900 X84.927 Y45.594 E76.84025
G0 F10500 X84.043 Y45.594
G1 F900 X77.605 Y39.157 E77.21932
G0 F10500 X76.721 Y39.157
G1 F900 X83.159 Y45.594 E77.59839
G0 F10500 X82.275 Y45.594
G1 F900 X75.837 Y39.157 E77.97746
G0 F10500 X74.954 Y39.157
G1 F900 X81.391 Y45.594 E78.35650
G0 F10500 X80.507 Y45.594
G1 F900 X74.070 Y39.157 E78.73555
G0 F10500 X61.155 Y40.384
G1 F900 X98.844 Y78.073 E80.95486
G0 F10500 X98.844 Y78.957
G1 F900 X61.155 Y41.268 E83.17418
G0 F10500 X61.155 Y42.152
G1 F900 X98.844 Y79.841 E85.39349
G0 F10500 X98.844 Y80.725
G1 F900 X61.155 Y43.036 E87.61281
G0 F10500 X61.155 Y43.920
G1 F900 X98.844 Y81.609 E89.83212
G0 F10500 X98.844 Y82.493
G1 F900 X61.155 Y44.804 E92.05144
G0 F10500 X61.155 Y45.688
G1 F900 X98.844 Y83.377 E94.27075
G0 F10500 X98.844 Y84.260
G1 F900 X61.155 Y46.572 E96.49004
G0 F10500 X61.155 Y47.456
G1 F900 X98.844 Y85.144 E98.70932
G0 F10500 X98.844 Y86.028
G1 F900 X61.155 Y48.339 E100.92864
G0 F10500 X61.155 Y49.223
G1 F900 X98.844 Y86.912 E103.14795
G0 F10500 X98.844 Y87.796
G1 F900 X61.155 Y50.107 E105.36727
G0 F10500 X61.155 Y50.991
G1 F900 X98.844 Y88.680 E107.58658
G0 F10500 X98.844 Y89.564
G1 F900 X61.155 Y51.875 E109.80590
G0 F10500 X61.155 Y52.759
G1 F900 X98.844 Y90.448 E112.02521
G0 F10500 X98.844 Y91.332
G1 F900 X61.155 Y53.643 E114.24453
G0 F10500 X61.155 Y54.527
G1 F900 X98.844 Y92.215 E116.46381
G0 F10500 X98.844 Y93.099
G1 F900 X61.155 Y55.411 E118.68310
G0 F10500 X61.155 Y56.294
G1 F900 X98.844 Y93.983 E120.90241
G0 F10500 X98.844 Y94.867
G1 F900 X61.155 Y57.178 E123.12173
G0 F10500 X61.155 Y58.062
G1 F900 X98.844 Y95.751 E125.34104
G0 F10500 X98.844 Y96.635
G1 F900 X61.155 Y58.946 E127.56036
G0 F10500 X61.155 Y59.830
G1 F900 X98.844 Y97.519 E129.77967
G0 F10500 X98.844 Y98.403
G1 F900 X61.155 Y60.714 E131.99899
G0 F10500 X61.155 Y61.598
G1 F900 X98.844 Y99.286 E134.21828
G0 F10500 X98.844 Y100.170
G1 F900 X61.155 Y62.482 E136.43756
G0 F10500 X61.155 Y63.365
G1 F900 X98.844 Y101.054 E138.65688
G0 F10500 X98.844 Y101.938
G1 F900 X61.155 Y64.249 E140.87619
G0 F10500 X61.155 Y65.133
G1 F900 X98.844 Y102.822 E143.09551
G0 F10500 X98.844 Y103.706
G1 F900 X61.155 Y66.017 E145.31482
G0 F10500 X61.155 Y66.901
G1 F900 X98.844 Y104.590 E147.53414
G0 F10500 X98.844 Y105.474
G1 F900 X61.155 Y67.785 E149.75345
G0 F10500 X61.155 Y68.669
G1 F900 X98.079 Y105.592 E151.92769
G0 F10500 X97.195 Y105.592
G1 F900 X61.155 Y69.553 E154.04987
G0 F10500 X61.155 Y70.437
G1 F900 X96.311 Y105.592 E156.12000
G0 F10500 X95.427 Y105.592
G1 F900 X61.155 Y71.320 E158.13811
G0 F10500 X61.155 Y72.204
G1 F900 X94.543 Y105.592 E160.10416
G0 F10500 X93.659 Y105.592
G1 F900 X61.155 Y73.088 E162.01816
G0 F10500 X61.155 Y73.972
G1 F900 X92.775 Y105.592 E163.88010
G0 F10500 X91.892 Y105.592
G1 F900 X61.155 Y74.856 E165.69002
G0 F10500 X61.155 Y75.740
G1 F900 X91.008 Y105.592 E167.44788
G0 F10500 X90.124 Y105.592
G1 F900 X61.155 Y76.624 E169.15369
G0 F10500 X61.155 Y77.508
G1 F900 X89.240 Y105.592 E170.80744
G0 F10500 X88.356 Y105.592
G1 F900 X61.155 Y78.391 E172.40917
G0 F10500 X61.155 Y79.275
G1 F900 X87.472 Y105.592 E173.95885
G0 F10500 X86.588 Y105.592
G1 F900 X61.155 Y80.159 E175.45647
G0 F10500 X61.155 Y81.043
G1 F900 X85.704 Y105.592 E176.90204
G0 F10500 X84.820 Y105.592
G1 F900 X61.155 Y81.927 E178.29555
G0 F10500 X61.155 Y82.811
G1 F900 X83.937 Y105.592 E179.63704
G0 F10500 X83.053 Y105.592
G1 F900 X61.155 Y83.695 E180.92647
G0 F10500 X61.155 Y84.579
G1 F900 X82.169 Y105.592 E182.16385
G0 F10500 X81.285 Y105.592
G1 F900 X61.155 Y85.463 E183.34917
G0 F10500 X61.155 Y86.346
G1 F900 X80.401 Y105.592 E184.48247
G0 F10500 X78.234 Y105.984
G0 X78.234 Y110.016
G0 X80.794 Y110.405
G1 F900 X87.231 Y116.842 E184.86152
G0 F10500 X86.347 Y116.842
G1 F900 X79.910 Y110.405 E185.24056
G0 F10500 X79.026 Y110.405
G1 F900 X85.463 Y116.842 E185.61960
G0 F10500 X84.579 Y116.842
G1 F900 X78.143 Y110.405 E185.99861
G0 F10500 X77.843 Y110.106
G1 F900 X61.155 Y93.417 E186.98131
G0 F10500 X61.155 Y92.534
G1 F900 X77.843 Y109.222 E187.96399
G0 F10500 X77.843 Y108.338
G1 F900 X61.155 Y91.650 E188.94666
G0 F10500 X61.155 Y90.766
G1 F900 X77.843 Y107.454 E189.92933
G0 F10500 X77.843 Y106.570
G1 F900 X61.155 Y89.882 E190.91200
G0 F10500 X61.155 Y88.998
G1 F900 X77.843 Y105.687 E191.89470
G0 F10500 X78.633 Y105.592
G1 F900 X61.155 Y88.114 E192.92390
G0 F10500 X61.155 Y87.230
G1 F900 X79.517 Y105.592 E194.00514
G0 F10500 X78.234 Y105.984
G0 X78.234 Y110.016
G0 X79.277 Y116.843
G1 F900 X61.155 Y98.721 E195.07225
G0 F10500 X61.155 Y99.605
G1 F900 X78.393 Y116.843 E196.08731
G0 F10500 X77.509 Y116.843
G1 F900 X61.155 Y100.489 E197.05032
G0 F10500 X61.155 Y101.372
G1 F900 X76.625 Y116.843 E197.96130
G0 F10500 X75.741 Y116.843
G1 F900 X61.155 Y102.256 E198.82022
G0 F10500 X61.155 Y103.140
G1 F900 X74.857 Y116.843 E199.62709
G0 F10500 X73.973 Y116.843
G1 F900 X61.155 Y104.024 E200.38191
G0 F10500 X61.155 Y104.908
G1 F900 X73.090 Y116.843 E201.08470
G0 F10500 X72.206 Y116.843
G1 F900 X61.155 Y105.792 E201.73544
G0 F10500 X61.155 Y106.676
G1 F900 X71.322 Y116.843 E202.33412
G0 F10500 X70.438 Y116.843
G1 F900 X61.155 Y107.560 E202.88075
G0 F10500 X61.155 Y108.444
G1 F900 X69.554 Y116.843 E203.37533
G0 F10500 X68.670 Y116.843
G1 F900 X61.155 Y109.327 E203.81788
G0 F10500 X61.155 Y110.211
G1 F900 X67.786 Y116.843 E204.20837
G0 F10500 X66.902 Y116.843
G1 F900 X61.155 Y111.095 E204.54681
G0 F10500 X61.155 Y111.979
G1 F900 X66.019 Y116.843 E204.83323
G0 F10500 X65.135 Y116.843
G1 F900 X61.155 Y112.863 E205.06759
G0 F10500 X61.155 Y113.747
G1 F900 X64.251 Y116.843 E205.24990
G0 F10500 X63.367 Y116.843
G1 F900 X61.155 Y114.631 E205.38015
G0 F10500 X61.155 Y115.515
G1 F900 X62.483 Y116.843 E205.45835
G0 F10500 X61.599 Y116.843
G1 F900 X61.155 Y116.398 E205.48453
G0 F10500 X61.155 Y97.837
G1 F900 X80.160 Y116.842 E206.60364
G0 F10500 X81.044 Y116.842
G1 F900 X61.155 Y96.953 E207.77480
G0 F10500 X61.155 Y96.069
G1 F900 X81.928 Y116.842 E208.99802
G0 F10500 X82.812 Y116.842
G1 F900 X61.155 Y95.185 E210.27329
G0 F10500 X61.155 Y94.301
G1 F900 X83.695 Y116.842 E211.60058
G0 F10500 X88.115 Y116.842
G1 F900 X81.678 Y110.405 E211.97963
G0 F10500 X82.562 Y110.405
G1 F900 X88.999 Y116.842 E212.35867
G0 F10500 X89.883 Y116.842
G1 F900 X83.446 Y110.405 E212.73771
G0 F10500 X84.330 Y110.405
G1 F900 X90.767 Y116.842 E213.11675
G0 F10500 X91.650 Y116.842
G1 F900 X85.214 Y110.405 E213.49577
G0 F10500 X86.098 Y110.405
G1 F900 X92.534 Y116.842 E213.87478
G0 F10500 X93.418 Y116.842
G1 F900 X86.981 Y110.405 E214.25382
G0 F10500 X87.865 Y110.405
G1 F900 X94.302 Y116.842 E214.63287
G0 F10500 X95.186 Y116.842
G1 F900 X88.749 Y110.405 E215.01191
G0 F10500 X89.633 Y110.405
G1 F900 X96.070 Y116.842 E215.39095
G0 F10500 X96.954 Y116.842
G1 F900 X90.517 Y110.405 E215.76999
G0 F10500 X91.401 Y110.405
G1 F900 X97.838 Y116.842 E216.14903
G0 F10500 X98.722 Y116.842
G1 F900 X92.285 Y110.405 E216.52808
G0 F10500 X93.169 Y110.405
G1 F900 X98.844 Y116.080 E216.86225
G0 F10500 X98.844 Y115.196
G1 F900 X94.052 Y110.405 E217.14440
G0 F10500 X94.936 Y110.405
G1 F900 X98.844 Y114.313 E217.37452
G0 F10500 X98.844 Y113.429
G1 F900 X95.820 Y110.405 E217.55259
G0 F10500 X96.704 Y110.405
G1 F900 X98.844 Y112.545 E217.67860
G0 F10500 X98.844 Y111.661
G1 F900 X97.588 Y110.405 E217.75256
G0 F10500 X98.472 Y110.405
G1 F900 X98.844 Y110.777 E217.77447
G0 F10500 X78.234 Y110.016
G0 X78.234 Y105.984
G0 X78.234 Y45.985
G0 X98.843 Y45.369
G1 F900 X92.631 Y39.157 E218.14026
G0 F10500 X93.515 Y39.157
G1 F900 X98.843 Y44.485 E218.45400
G0 F10500 X98.843 Y43.601
G1 F900 X94.399 Y39.157 E218.71568
G0 F10500 X95.283 Y39.157
G1 F900 X98.843 Y42.717 E218.92531
G0 F10500 X98.843 Y41.833
G1 F900 X96.167 Y39.157 E219.08289
G0 F10500 X97.051 Y39.157
G1 F900 X98.843 Y40.949 E219.18841
G0 F10500 X98.843 Y40.066
G1 F900 X97.934 Y39.157 E219.24194
;LAYER:1
M106 S191
G0 F10500 X99.250 Y38.751 Z0.805
;TYPE:WALL-INNER
G1 F1140 X99.250 Y46.001 E219.45787
G1 X78.250 Y46.001 E220.08332
G1 X78.250 Y50.001 E220.20245
G1 X99.250 Y50.001 E220.82790
G1 X99.250 Y106.000 E222.49574
G1 X78.250 Y106.000 E223.12119
G1 X78.250 Y110.000 E223.24033
G1 X99.250 Y110.000 E223.86578
G1 X99.250 Y117.249 E224.08168
G1 X60.750 Y117.250 E225.22834
G1 X60.750 Y38.751 E227.56630
G1 X99.250 Y38.751 E228.71296
G0 F10500 X99.750 Y38.251
;TYPE:WALL-OUTER
G1 F1080 X99.750 Y46.501 E228.95868
G1 X78.750 Y46.501 E229.58413
G1 X78.750 Y49.501 E229.67348
G1 X99.750 Y49.501 E230.29893
G1 X99.750 Y106.500 E231.99655
G1 X78.750 Y106.500 E232.62200
G1 X78.750 Y109.500 E232.71135
G1 X99.750 Y109.500 E233.33680
G1 X99.750 Y117.749 E233.58249
G1 X60.250 Y117.750 E234.75893
G1 X60.250 Y38.251 E237.12668
G1 X99.750 Y38.251 E238.30312
G0 F10500 X99.074 Y39.165
;TYPE:SKIN
G1 F1380 X92.413 Y45.826 E238.58368
G0 F10500 X93.120 Y45.826
G1 F1380 X99.074 Y39.872 E238.83447
G0 F10500 X98.606 Y38.926
G1 F1380 X91.706 Y45.826 E239.12510
G0 F10500 X90.998 Y45.826
G1 F1380 X97.898 Y38.926 E239.41572
G0 F10500 X97.191 Y38.926
G1 F1380 X90.291 Y45.826 E239.70635
G0 F10500 X89.584 Y45.826
G1 F1380 X96.484 Y38.926 E239.99698
G0 F10500 X95.777 Y38.926
G1 F1380 X88.877 Y45.826 E240.28761
G0 F10500 X88.170 Y45.826
G1 F1380 X95.070 Y38.926 E240.57824
G0 F10500 X94.363 Y38.926
G1 F1380 X87.463 Y45.826 E240.86887
G0 F10500 X86.756 Y45.826
G1 F1380 X93.656 Y38.926 E241.15949
G0 F10500 X92.949 Y38.926
G1 F1380 X86.049 Y45.826 E241.45012
G0 F10500 X85.342 Y45.826
G1 F1380 X92.242 Y38.926 E241.74075
G0 F10500 X91.534 Y38.926
G1 F1380 X84.635 Y45.826 E242.03136
G0 F10500 X83.927 Y45.826
G1 F1380 X90.827 Y38.926 E242.32199
G0 F10500 X90.120 Y38.926
G1 F1380 X83.220 Y45.826 E242.61262
G0 F10500 X82.513 Y45.826
G1 F1380 X89.413 Y38.926 E242.90324
G0 F10500 X88.706 Y38.926
G1 F1380 X81.806 Y45.826 E243.19387
G0 F10500 X81.099 Y45.826
G1 F1380 X87.999 Y38.926 E243.48450
G0 F10500 X87.292 Y38.926
G1 F1380 X80.392 Y45.826 E243.77513
G0 F10500 X78.359 Y46.110
G0 X78.359 Y49.892
G0 X80.284 Y50.176
G1 F1380 X60.925 Y69.536 E244.59055
G0 F10500 X60.925 Y70.243
G1 F1380 X80.992 Y50.176 E245.43578
G0 F10500 X81.699 Y50.176
G1 F1380 X60.925 Y70.950 E246.31078
G0 F10500 X60.925 Y71.657
G1 F1380 X82.406 Y50.176 E247.21556
G0 F10500 X83.113 Y50.176
G1 F1380 X60.925 Y72.364 E248.15012
G0 F10500 X60.925 Y73.071
G1 F1380 X83.820 Y50.176 E249.11446
G0 F10500 X84.527 Y50.176
G1 F1380 X60.925 Y73.778 E250.10858
G0 F10500 X60.925 Y74.485
G1 F1380 X85.234 Y50.176 E251.13247
G0 F10500 X85.941 Y50.176
G1 F1380 X60.925 Y75.193 E252.18617
G0 F10500 X60.925 Y75.900
G1 F1380 X86.648 Y50.176 E253.26964
G0 F10500 X87.355 Y50.176
G1 F1380 X60.925 Y76.607 E254.38290
G0 F10500 X60.925 Y77.314
G1 F1380 X88.063 Y50.176 E255.52595
G0 F10500 X88.770 Y50.176
G1 F1380 X60.925 Y78.021 E256.69879
G0 F10500 X60.925 Y78.728
G1 F1380 X89.477 Y50.176 E257.90140
G0 F10500 X90.184 Y50.176
G1 F1380 X60.925 Y79.435 E259.13379
G0 F10500 X60.925 Y68.829
G1 F1380 X79.577 Y50.176 E259.91943
G0 F10500 X78.870 Y50.176
G1 F1380 X60.925 Y68.121 E260.67528
G0 F10500 X60.925 Y67.414
G1 F1380 X78.163 Y50.176 E261.40134
G0 F10500 X78.074 Y49.558
G1 F1380 X60.925 Y66.707 E262.12366
G0 F10500 X60.925 Y66.000
G1 F1380 X78.074 Y48.851 E262.84598
G0 F10500 X78.074 Y48.144
G1 F1380 X60.925 Y65.293 E263.56829
G0 F10500 X60.925 Y64.586
G1 F1380 X78.074 Y47.436 E264.29063
G0 F10500 X78.074 Y46.729
G1 F1380 X60.925 Y63.879 E265.01297
G0 F10500 X60.925 Y63.172
G1 F1380 X78.074 Y46.022 E265.73531
G0 F10500 X78.271 Y45.826
G1 F1380 X85.171 Y38.926 E266.02594
G0 F10500 X85.878 Y38.926
G1 F1380 X78.978 Y45.826 E266.31657
G0 F10500 X79.685 Y45.826
G1 F1380 X86.585 Y38.926 E266.60719
G0 F10500 X84.463 Y38.926
G1 F1380 X60.925 Y62.465 E267.59864
G0 F10500 X60.925 Y61.757
G1 F1380 X83.756 Y38.926 E268.56028
G0 F10500 X83.049 Y38.926
G1 F1380 X60.925 Y61.050 E269.49214
G0 F10500 X60.925 Y60.343
G1 F1380 X82.342 Y38.926 E270.39423
G0 F10500 X81.635 Y38.926
G1 F1380 X60.925 Y59.636 E271.26654
G0 F10500 X60.925 Y58.929
G1 F1380 X80.928 Y38.926 E272.10906
G0 F10500 X80.221 Y38.926
G1 F1380 X60.925 Y58.222 E272.92181
G0 F10500 X60.925 Y57.515
G1 F1380 X79.514 Y38.926 E273.70478
G0 F10500 X78.807 Y38.926
G1 F1380 X60.925 Y56.808 E274.45797
G0 F10500 X60.925 Y56.101
G1 F1380 X78.099 Y38.926 E275.18136
G0 F10500 X77.392 Y38.926
G1 F1380 X60.925 Y55.394 E275.87498
G0 F10500 X60.925 Y54.686
G1 F1380 X76.685 Y38.926 E276.53879
G0 F10500 X75.978 Y38.926
G1 F1380 X60.925 Y53.979 E277.17282
G0 F10500 X60.925 Y53.272
G1 F1380 X75.271 Y38.926 E277.77708
G0 F10500 X74.564 Y38.926
G1 F1380 X60.925 Y52.565 E278.35155
G0 F10500 X60.925 Y51.858
G1 F1380 X73.857 Y38.926 E278.89625
G0 F10500 X73.150 Y38.926
G1 F1380 X60.925 Y51.151 E279.41117
G0 F10500 X60.925 Y50.444
G1 F1380 X72.443 Y38.926 E279.89630
G0 F10500 X71.735 Y38.926
G1 F1380 X60.925 Y49.737 E280.35164
G0 F10500 X60.925 Y49.030
G1 F1380 X71.028 Y38.926 E280.77720
G0 F10500 X70.321 Y38.926
G1 F1380 X60.925 Y48.322 E281.17296
G0 F10500 X60.925 Y47.615
G1 F1380 X69.614 Y38.926 E281.53894
G0 F10500 X68.907 Y38.926
G1 F1380 X60.925 Y46.908 E281.87515
G0 F10500 X60.925 Y46.201
G1 F1380 X68.200 Y38.926 E282.18157
G0 F10500 X67.493 Y38.926
G1 F1380 X60.925 Y45.494 E282.45822
G0 F10500 X60.925 Y44.787
G1 F1380 X66.786 Y38.926 E282.70508
G0 F10500 X66.079 Y38.926
G1 F1380 X60.925 Y44.080 E282.92217
G0 F10500 X60.925 Y43.373
G1 F1380 X65.372 Y38.926 E283.10948
G0 F10500 X64.664 Y38.926
G1 F1380 X60.925 Y42.666 E283.26698
G0 F10500 X60.925 Y41.959
G1 F1380 X63.957 Y38.926 E283.39471
G0 F10500 X63.250 Y38.926
G1 F1380 X60.925 Y41.251 E283.49264
G0 F10500 X60.925 Y40.544
G1 F1380 X62.543 Y38.926 E283.56079
G0 F10500 X61.836 Y38.926
G1 F1380 X60.925 Y39.837 E283.59916
G0 F10500 X60.925 Y39.130
G1 F1380 X61.129 Y38.926 E283.60776
G0 F10500 X78.359 Y49.892
G0 X90.891 Y50.176
G1 F1380 X60.925 Y80.142 E284.86993
G0 F10500 X60.925 Y80.849
G1 F1380 X91.598 Y50.176 E286.16187
G0 F10500 X92.305 Y50.176
G1 F1380 X60.925 Y81.556 E287.48360
G0 F10500 X60.925 Y82.264
G1 F1380 X93.012 Y50.176 E288.83513
G0 F10500 X93.719 Y50.176
G1 F1380 X60.925 Y82.971 E290.21644
G0 F10500 X60.925 Y83.678
G1 F1380 X94.427 Y50.176 E291.62754
G0 F10500 X95.134 Y50.176
G1 F1380 X60.925 Y84.385 E293.06843
G0 F10500 X60.925 Y85.092
G1 F1380 X95.841 Y50.176 E294.53909
G0 F10500 X96.548 Y50.176
G1 F1380 X60.925 Y85.799 E296.03953
G0 F10500 X60.925 Y86.506
G1 F1380 X97.255 Y50.176 E297.56976
G0 F10500 X97.962 Y50.176
G1 F1380 X60.925 Y87.213 E299.12976
G0 F10500 X60.925 Y87.920
G1 F1380 X98.669 Y50.176 E300.71954
G0 F10500 X99.074 Y50.478
G1 F1380 X60.925 Y88.628 E302.32640
G0 F10500 X60.925 Y89.335
G1 F1380 X99.074 Y51.186 E303.93323
G0 F10500 X99.074 Y51.893
G1 F1380 X60.925 Y90.042 E305.54007
G0 F10500 X60.925 Y90.749
G1 F1380 X99.074 Y52.600 E307.14691
G0 F10500 X99.074 Y53.307
G1 F1380 X60.925 Y91.456 E308.75375
G0 F10500 X60.925 Y92.163
G1 F1380 X99.074 Y54.014 E310.36059
G0 F10500 X99.074 Y54.721
G1 F1380 X60.925 Y92.870 E311.96743
G0 F10500 X60.925 Y93.577
G1 F1380 X99.074 Y55.428 E313.57426
G0 F10500 X99.074 Y56.135
G1 F1380 X60.925 Y94.284 E315.18110
G0 F10500 X60.925 Y94.992
G1 F1380 X99.074 Y56.842 E316.78796
G0 F10500 X99.074 Y57.550
G1 F1380 X60.925 Y95.699 E318.39480
G0 F10500 X60.925 Y96.406
G1 F1380 X99.074 Y58.257 E320.00164
G0 F10500 X99.074 Y58.964
G1 F1380 X60.925 Y97.113 E321.60848
G0 F10500 X60.925 Y97.820
G1 F1380 X99.074 Y59.671 E323.21531
G0 F10500 X78.359 Y49.892
G0 X78.359 Y46.110
G0 X98.777 Y45.826
G1 F1380 X99.074 Y45.529 E323.22782
G0 F10500 X99.074 Y44.822
G1 F1380 X98.070 Y45.826 E323.27011
G0 F10500 X97.362 Y45.826
G1 F1380 X99.074 Y44.114 E323.34222
G0 F10500 X99.074 Y43.407
G1 F1380 X96.655 Y45.826 E323.44411
G0 F10500 X95.948 Y45.826
G1 F1380 X99.074 Y42.700 E323.57578
G0 F10500 X99.074 Y41.993
G1 F1380 X95.241 Y45.826 E323.73722
G0 F10500 X94.534 Y45.826
G1 F1380 X99.074 Y41.286 E323.92845
G0 F10500 X99.074 Y40.579
G1 F1380 X93.827 Y45.826 E324.14945
G0 F10500 X78.359 Y46.110
G0 X78.359 Y49.892
G0 X99.074 Y60.378
G1 F1380 X60.925 Y98.527 E325.75629
G0 F10500 X60.925 Y99.234
G1 F1380 X99.074 Y61.085 E327.36313
G0 F10500 X99.074 Y61.792
G1 F1380 X60.925 Y99.941 E328.96997
G0 F10500 X60.925 Y100.648
G1 F1380 X99.074 Y62.499 E330.57681
G0 F10500 X99.074 Y63.206
G1 F1380 X60.925 Y101.355 E332.18364
G0 F10500 X60.925 Y102.063
G1 F1380 X99.074 Y63.913 E333.79050
G0 F10500 X99.074 Y64.621
G1 F1380 X60.925 Y102.770 E335.39734
G0 F10500 X60.925 Y103.477
G1 F1380 X99.074 Y65.328 E337.00418
G0 F10500 X99.074 Y66.035
G1 F1380 X60.925 Y104.184 E338.61102
G0 F10500 X60.925 Y104.891
G1 F1380 X99.074 Y66.742 E340.21786
G0 F10500 X99.074 Y67.449
G1 F1380 X60.925 Y105.598 E341.82469
G0 F10500 X60.925 Y106.305
G1 F1380 X99.074 Y68.156 E343.43153
G0 F10500 X99.074 Y68.863
G1 F1380 X60.925 Y107.012 E345.03837
G0 F10500 X60.925 Y107.719
G1 F1380 X99.074 Y69.570 E346.64521
G0 F10500 X99.074 Y70.277
G1 F1380 X60.925 Y108.427 E348.25207
G0 F10500 X60.925 Y109.134
G1 F1380 X99.074 Y70.985 E349.85891
G0 F10500 X99.074 Y71.692
G1 F1380 X60.925 Y109.841 E351.46574
G0 F10500 X60.925 Y110.548
G1 F1380 X99.074 Y72.399 E353.07258
G0 F10500 X99.074 Y73.106
G1 F1380 X60.925 Y111.255 E354.67942
G0 F10500 X60.925 Y111.962
G1 F1380 X99.074 Y73.813 E356.28626
G0 F10500 X99.074 Y74.520
G1 F1380 X60.925 Y112.669 E357.89310
G0 F10500 X60.925 Y113.376
G1 F1380 X99.074 Y75.227 E359.49994
G0 F10500 X99.074 Y75.934
G1 F1380 X60.925 Y114.083 E361.10677
G0 F10500 X60.925 Y114.791
G1 F1380 X99.074 Y76.641 E362.71363
G0 F10500 X99.074 Y77.348
G1 F1380 X60.925 Y115.498 E364.32049
G0 F10500 X60.925 Y116.205
G1 F1380 X99.074 Y78.055 E365.92735
G0 F10500 X99.074 Y78.762
G1 F1380 X60.925 Y116.912 E367.53421
G0 F10500 X61.469 Y117.074
G1 F1380 X99.074 Y79.469 E369.11814
G0 F10500 X99.074 Y80.176
G1 F1380 X62.176 Y117.074 E370.67228
G0 F10500 X62.883 Y117.074
G1 F1380 X99.074 Y80.883 E372.19665
G0 F10500 X99.074 Y81.590
G1 F1380 X63.590 Y117.074 E373.69124
G0 F10500 X64.297 Y117.074
G1 F1380 X99.074 Y82.298 E375.15603
G0 F10500 X99.074 Y83.005
G1 F1380 X65.005 Y117.074 E376.59101
G0 F10500 X65.712 Y117.074
G1 F1380 X99.074 Y83.712 E377.99622
G0 F10500 X99.074 Y84.419
G1 F1380 X66.419 Y117.074 E379.37165
G0 F10500 X67.126 Y117.074
G1 F1380 X78.074 Y106.126 E379.83278
G0 F10500 X78.377 Y105.824
G1 F1380 X99.074 Y85.126 E380.70456
G0 F10500 X99.074 Y85.833
G1 F1380 X79.084 Y105.824 E381.54657
G0 F10500 X79.791 Y105.824
G1 F1380 X99.074 Y86.540 E382.35879
G0 F10500 X99.074 Y87.247
G1 F1380 X80.498 Y105.824 E383.14123
G0 F10500 X81.205 Y105.824
G1 F1380 X99.074 Y87.954 E383.89390
G0 F10500 X99.074 Y88.661
G1 F1380 X81.912 Y105.824 E384.61678
G0 F10500 X82.619 Y105.824
G1 F1380 X99.074 Y89.369 E385.30987
G0 F10500 X99.074 Y90.076
G1 F1380 X83.326 Y105.824 E385.97317
G0 F10500 X84.033 Y105.824
G1 F1380 X99.074 Y90.783 E386.60670
G0 F10500 X99.074 Y91.490
G1 F1380 X84.741 Y105.824 E387.21043
G0 F10500 X85.448 Y105.824
G1 F1380 X99.074 Y92.197 E387.78438
G0 F10500 X99.074 Y92.904
G1 F1380 X86.155 Y105.824 E388.32855
G0 F10500 X86.862 Y105.824
G1 F1380 X99.074 Y93.611 E388.84294
G0 F10500 X99.074 Y94.318
G1 F1380 X87.569 Y105.824 E389.32755
G0 F10500 X88.276 Y105.824
G1 F1380 X99.074 Y95.025 E389.78239
G0 F10500 X99.074 Y95.733
G1 F1380 X88.983 Y105.824 E390.20742
G0 F10500 X89.690 Y105.824
G1 F1380 X99.074 Y96.440 E390.60267
G0 F10500 X99.074 Y97.147
G1 F1380 X90.397 Y105.824 E390.96815
G0 F10500 X91.105 Y105.824
G1 F1380 X99.074 Y97.854 E391.30383
G0 F10500 X99.074 Y98.561
G1 F1380 X91.812 Y105.824 E391.60972
G0 F10500 X92.519 Y105.824
G1 F1380 X99.074 Y99.268 E391.88584
G0 F10500 X99.074 Y99.975
G1 F1380 X93.226 Y105.824 E392.13218
G0 F10500 X93.933 Y105.824
G1 F1380 X99.074 Y100.682 E392.34874
G0 F10500 X99.074 Y101.389
G1 F1380 X94.640 Y105.824 E392.53552
G0 F10500 X95.347 Y105.824
G1 F1380 X99.074 Y102.097 E392.69250
G0 F10500 X99.074 Y102.804
G1 F1380 X96.054 Y105.824 E392.81971
G0 F10500 X96.761 Y105.824
G1 F1380 X99.074 Y103.511 E392.91713
G0 F10500 X99.074 Y104.218
G1 F1380 X97.469 Y105.824 E392.98475
G0 F10500 X98.176 Y105.824
G1 F1380 X99.074 Y104.925 E393.02260
G0 F10500 X99.074 Y105.632
G1 F1380 X98.883 Y105.824 E393.03066
G0 F10500 X78.359 Y106.109
G0 X78.359 Y109.891
G0 X98.775 Y110.174
G1 F1380 X91.875 Y117.074 E393.32129
G0 F10500 X92.582 Y117.074
G1 F1380 X99.074 Y110.582 E393.59474
G0 F10500 X99.074 Y111.289
G1 F1380 X93.290 Y117.074 E393.83838
G0 F10500 X93.997 Y117.074
G1 F1380 X99.074 Y111.996 E394.05224
G0 F10500 X99.074 Y112.703
G1 F1380 X94.704 Y117.074 E394.23633
G0 F10500 X95.411 Y117.074
G1 F1380 X99.074 Y113.410 E394.39064
G0 F10500 X99.074 Y114.117
G1 F1380 X96.118 Y117.074 E394.51516
G0 F10500 X96.825 Y117.074
G1 F1380 X99.074 Y114.824 E394.60991
G0 F10500 X99.074 Y115.532
G1 F1380 X97.532 Y117.074 E394.67486
G0 F10500 X98.239 Y117.074
G1 F1380 X99.074 Y116.239 E394.71003
G0 F10500 X99.074 Y116.946
G1 F1380 X98.946 Y117.074 E394.71542
G0 F10500 X98.068 Y110.174
G1 F1380 X91.168 Y117.074 E395.00605
G0 F10500 X90.461 Y117.074
G1 F1380 X97.361 Y110.174 E395.29668
G0 F10500 X96.654 Y110.174
G1 F1380 X89.754 Y117.074 E395.58731
G0 F10500 X89.047 Y117.074
G1 F1380 X95.947 Y110.174 E395.87794
G0 F10500 X95.240 Y110.174
G1 F1380 X88.340 Y117.074 E396.16857
G0 F10500 X87.633 Y117.074
G1 F1380 X94.533 Y110.174 E396.45919
G0 F10500 X93.825 Y110.174
G1 F1380 X86.926 Y117.074 E396.74980
G0 F10500 X86.218 Y117.074
G1 F1380 X93.118 Y110.174 E397.04043
G0 F10500 X92.411 Y110.174
G1 F1380 X85.511 Y117.074 E397.33106
G0 F10500 X84.804 Y117.074
G1 F1380 X91.704 Y110.174 E397.62169
G0 F10500 X90.997 Y110.174
G1 F1380 X84.097 Y117.074 E397.91232
G0 F10500 X83.390 Y117.074
G1 F1380 X90.290 Y110.174 E398.20294
G0 F10500 X89.583 Y110.174
G1 F1380 X82.683 Y117.074 E398.49357
G0 F10500 X81.976 Y117.074
G1 F1380 X88.876 Y110.174 E398.78420
G0 F10500 X88.169 Y110.174
G1 F1380 X81.269 Y117.074 E399.07483
G0 F10500 X80.562 Y117.074
G1 F1380 X87.462 Y110.174 E399.36546
G0 F10500 X86.754 Y110.174
G1 F1380 X79.854 Y117.074 E399.65609
G0 F10500 X79.147 Y117.074
G1 F1380 X86.047 Y110.174 E399.94671
G0 F10500 X85.340 Y110.174
G1 F1380 X78.440 Y117.074 E400.23734
G0 F10500 X77.732 Y117.074
G1 F1380 X84.633 Y110.174 E400.52799
G0 F10500 X83.926 Y110.174
G1 F1380 X77.025 Y117.074 E400.81864
G0 F10500 X76.318 Y117.074
G1 F1380 X83.219 Y110.174 E401.10929
G0 F10500 X82.512 Y110.174
G1 F1380 X75.611 Y117.074 E401.39994
G0 F10500 X74.904 Y117.074
G1 F1380 X81.805 Y110.174 E401.69059
G0 F10500 X81.098 Y110.174
G1 F1380 X74.197 Y117.074 E401.98124
G0 F10500 X73.490 Y117.074
G1 F1380 X80.390 Y110.174 E402.27187
G0 F10500 X79.683 Y110.174
G1 F1380 X72.783 Y117.074 E402.56250
G0 F10500 X72.076 Y117.074
G1 F1380 X78.976 Y110.174 E402.85313
G0 F10500 X78.269 Y110.174
G1 F1380 X71.368 Y117.074 E403.14377
G0 F10500 X70.661 Y117.074
G1 F1380 X78.074 Y109.662 E403.45599
G0 F10500 X78.074 Y108.955
G1 F1380 X69.954 Y117.074 E403.79798
G0 F10500 X69.247 Y117.074
G1 F1380 X78.074 Y108.248 E404.16976
G0 F10500 X78.074 Y107.541
G1 F1380 X68.540 Y117.074 E404.57131
G0 F10500 X67.833 Y117.074
G1 F1380 X78.074 Y106.833 E405.00266
M107
G1 F600 E403.50266
G1 Z0.905
G0 F10500 X78.074 Y106.833 Z5.750
M400
M104 S0                                      ; hotend off
M140 S0                                      ; heated bed heater off (if you have it)
M107                                         ; fans off
G92 E5                                       ; set extruder to 5mm for retract on print end
G1 X5 Y5 Z158 E0 F10000                      ; move to cooling positioning
M190 R50                                     ; wait for bed to cool
M140 S0                                      ;
G1 X145 F1000                                ; move to cooling positioning
G1 Y175 F1000                                ; move to cooling positioning
M84                                          ; steppers off
G90                                          ; absolute positioning
;CURA_PROFILE_STRING:eNrtWltv28gVfhWE/oh53EVjlaTE2A7Bh03WNhaIF0Hsol6/ECNyJE3DG8ihZdnQf+93hheRMqXKbbpNdpUHxzw6tznXb2iFfCUybyHkfKFcYzQ+Gyx5GHpqIf0vschz1xxkQmXcVzKJPRHzaSjc26wQgzwJZeCFWr7NPpOQD0ScS7VyLWOQikxGQoFrKmZJJjwZE0upJE6enkLh5fJJwLo9SDMZKy9PhQhc26gelYighKsiE1Bov6Rabg/ruI846SPaDXEqgo61t8YgL9I0yZT7axKLQRpyhTNEHg8WIkdESnLF4wUFDz3xqLJCf/Y+UYvBUqbCU8lSZO4lD3PRIngPSVhEwjXtQZI8IQoLKcKgYkOMeCTgUyC5Dp9rjc7sl2Q6+wviuI846SPabeIsTJauaRgjo530Mhtmh8ajpIiVayJlLao+f/3R2+5nkYw9PDyIcFvKT6KpjOfuT2G4JSCjTjzhl9GRXCQpiOZgmiiVRK0qNEYTyx7o2jS8pQzUwptBJslcE/Rk+k/ho8pk/IV0DpIHkYU81e6TPntQOlqf/NSuLZTVXpHtQVnJ1fPEKFuCZ4JXJFIu41wooyKMq+fH+tke+EkS6uBUnYReoa6Z8brbgqrdvkhUWChjgYDpAFekOU/dMQyVT3XUQhHP1cK17FLVrICfTZfbmla6cNp68CL+SPnfODUDFb0gKP2auBAcTS9nqirTcgooJKI1FMpolRQdoSrCFLO6V9QqFe5HHCdvSDyeY7hMNjxaVpsfN43oPa5QvLnisU8j47ShP7XJqJM8lRkPabBUnsooxaiJkqCmTDGYOhFFifMZYsizuYxde1Q9a5Y85T5V6bimTnkuOiU3btFJRNcdir3ix3wRGaqwK2Sdbn+6EUUVlx9ymSHLHgazLqkWTSdTP+dFJU5llLtWl9pnspHoGJzJR/RVlkmUnlfEutlpISBdHq9Tuptl2oyvNg8ikqQi9qZS5X0M6HFaGA8Is5LKX1CgS7Y0LJALJAitNnfr1vUFhct7dE/MLdKKSGWqr5HpG6EUlOVui/YpS1BY6DIvxijnYeuja9RaJjEFTA+jvueDW6ra9wIuxSL7C8otU6O5TyXl3C5kzq7od7bgOZsKEbO5iGmViIChv3w5kz4CtWJYIUwtBPtYhE9YEuwaTTt03vNc+iyvPH7HPlImWdm079hz2NrUa/YPKALPc3dbr9klWgbk9hJeD53LasKzn6uxX7J0VwH4ftXrmN2ga8DRWs7r4ZVlsp3/HAYNGbx/4GEh8uHVubGPmU8xJwolWJrAQdQPDjy8PrP2ySAuTK+CAEFRyUYHNfTw2jRO9wlTothSqoWOOwYeS2YzuGmxC+Mwk7WrZNuAvYnBbp57UcPaQd4VCiBA8jglkxUp4ne273iLJBIMuaSTnLMbUr/TJ3jgh4JT1BjZZTwO2JJLNbwy2b1pG+ziZGywy1N7W7jwv8AXdncXRQgAq0vg3xmlY5BcJnJFcku+IlN3E5v9Zp5O2KVp2pbRrQeMfIQAnYza9zOO4GjvwHVpWobRY+XD519uf/nw08d3+pD3dMyy2skkNgz911LVWL8/GdnscmI0Sh1kOqXgOAzjI54LhiwlRETF8UAL21rY2i3cNWF0eLa4al1dll269nP9/rreGofoOjO+TV3nB+k6O0gXkE+/su9Cl2nuUPZ96DKbhjSoI82a1yn7Ng/pxqQn3bTIVgy7CV1dzcF8wQh1l+Nv9zzPuMwFe9Kj+A5OGXtG8aM2tTpwHKdZMq2n8fDaMibsZmzsEAEkafi574uQ1gYWC9w637chAFumolJuGb3aHfYZExp3bFp4MW4iwZYFGgoIs63DdGl3tJRbKymUXpF6xMOSuduhlAPXDa8nhrHHa0pQhpTNZpjaZTCfX1zA130rvrvYyBV7pxXi0aiKli7yoYVp6aIg9Irf3oWlWGWs2YNsyrEg9bIosc+he56o5Z5nQZHRbzOZYVdqzDYQcVCBRB0tCgOOswchbdcjwHGgAUvpzuGSQmPPGokgqlDCfpAztkoKoFSsaKl+3A+eXmoFeso38Mk+WG4bwdkAIZSz6kLPgK10nBlOW5cqVap9pjNIE8HYCT8JbhAuwh2Vwt8BliaWxGfbONDN7Voila8MfDnRJu0xttfkPu+hCnPxq6i6PpuwV+Q5VyJFrde5Nl4j24vwHfSRvnrhlkdNsh5oXG7VN6ibUPqIOafbTsBXa/qpMBye6aXI+n96QfqkC4/s4LNqPpVGm6sThl3QvjaV77nWUYu0LG3PW1J+kqu2FD1Dq67JXXOFOX+P/STS8nTTCQLqVzTvMm6mTcXL6PJO6mii9A3WPap61ZyzW7NPk/UfqTL+e6da905n5yXT6b9Rbuaas+sGuIECjm6du7/9Rj5FwBYYQ1imaa6Z7is0opnuX7Loi9cIY+q5/e5wXQmQyfrdMQvonCam3/B2x3Z1bpb0FkRvMkhamP714Nx5Z3WeRFayV6wBK98Bkm+XdOO62IJGTr3+TKO6Dgp6UaES/8vrrTA+5zLe2Dp57n8vvB7eGgcdulyg39Gxu4nHSClUuc9oDEeYPRwXUey4jx9+pmusEDEK1Dxlnyqe0WhESKGZhhfI+tWH6uXGRPdSf+ScZqlulnwlY75SZveScw7EElfn5kEbIhNoB/kgtnfdxQlCOd6/6ZwaMZR1Uk1azqaS0Bj9jYnRG2oNyMFRQrk3VFiwKjjuADlBfHqrQH2ZITcYN7qH/0qXj4sTm92dWBgL9KO/o+8J65UmCaTWHjXeiAcRYxmT2n23jdahdo2fN/BWO0qv3pnMNUSvfCeUvm+rOwfvcOc1G3t83NjHjf3n3NjWn3FjH2HKEaZswZTx/xOmkIx1hDZHaPP1oc3kCG2+KWhjfT1oc0RJvxtKGh+0Oydw+g8EGA6DhuM/1qGP0PAIDbeg4eR7g4YkMz7CySOc/LpwsvpeavtLgg1x8yfh8mu1HSZNaXFkAjvWFyM/f3AHSEI5Zi6qumwAazl8pkIt6auHdGi/yDId4rqEKQE60aA01DdsuRDxptM1mIiKUMk0bMZFlo+G5Vcc9Tcc8T/gja5yXUWk9PaH+McBYqK+Jf/4jBqwdu9fGWOHTg==

